X:98
T: Das jagen, das ist mein Leben! (1-23), S. 63
N: K0097
O: Luxemburg
S: KINTZELE, Guillaume: An der Ucht, Bd. 1, Luxemburg 1926]
N: in der Quelle mit einer 2. Stimme versehen
R: yyy]
M: 3/4
L: 1/8
K: G
D2 | G3FGB | A2G2AA | B2G2
GA | B3AB2 | c3Bc2 | d3edc | B2z2
GB | d2d2dc | B3AB2 | c2c2cB | A3GA2 |
B2B2A2 | B2z2
GB | d2d2c2 | B2z2
GB | d2d2dc | B3AB2 |
c2c2cB | A3G
A2 | B2B2A2 | B2z2
GB | d2d2c2 | B2z2

@@@ Tune index: 8152
